X: 1
T: Lost Pilgrim, The
M: 6/8
L: 1/8
R: jig
K: Gmaj
|:B|ded BAG|EAA A2A|BGE EDE|GAB AGE|
ded BAG|EAA ABc|BAG E2D|EGG G2:|
|:B|dgb age|dge edB|AGB AGE|DGB AGE|
DED BAG|EAA ABc|BAG GED|EGG G2:|
